Newaita-dark/actions/16/document-edit-sign-encrypt.svg

<svg height="16" viewBox="0 0 16 16" width="16" xmlns="http://www.w3.org/2000/svg"><g fill="#e0e0e0"><path d="m5.292969 2.769531v1.324219h1.320312v-1.324219zm1.320312 1.324219v1.324219h1.324219v-1.324219zm0 1.324219h-1.320312v1.320312h1.320312zm0 1.320312v1.324219h1.324219v-1.324219zm-1.320312-1.320312v-1.324219h-1.324219v1.324219zm-1.324219 1.324219v1.320312h1.324219v-1.320312zm0 0"/><path d="m12.957031 9.191406c-.257812-.257812-.675781-.257812-.9375 0l-2.507812 2.507813c-.023438.015625-.050781.035156-.070313.058593l1.417969 1.417969c.023437-.019531.042969-.046875.054687-.070312l2.511719-2.507813c.257813-.261718.257813-.679687 0-.9375zm-3.984375 3.03125-.234375.234375c-.03125.03125-.054687.070313-.074219.109375l-.699218 1.636719c-.125.285156.164062.570313.449218.449219l1.636719-.699219c.039063-.019531.078125-.042969.109375-.074219l.230469-.234375zm0 0"/><path d="m5.292969 8.0625v1.324219h1.320312v-1.324219zm1.320312 1.324219v1.324219h1.324219v-1.324219zm0 1.324219h-1.320312v1.320312h1.320312zm0 1.320312h1.324219zm-1.320312-1.320312v-1.324219h-1.324219v1.324219zm-1.324219 1.320312v1.324219h1.324219v-1.324219zm0 0"/><path d="m3.96875 1.449219c-.734375 0-1.324219.589843-1.324219 1.320312v10.585938c0 .734375.589844 1.324219 1.324219 1.324219h2.644531v-1.324219h-1.984375c-.363281 0-.660156-.296875-.660156-.660157v-9.261718c0-.367188.296875-.664063.660156-.664063h5.019532l2.261718 2.257813v2.375h-.003906v.328125h1.324219v-.328125h-.003907v-2.648438c0-.171875-.070312-.339844-.191406-.464844l-2.648437-2.644531c-.121094-.125-.289063-.191406-.464844-.191406h-2.644531v-.003906zm0 0"/></g></svg>

<?xml version="1.0" encoding="UTF-8"?>
<svg xmlns="http://www.w3.org/2000/svg" xmlns:xlink="http://www.w3.org/1999/xlink" width="16px" height="16px" viewBox="0 0 16 16" version="1.1">
<g id="surface1">
<path style=" stroke:none;fill-rule:nonzero;fill:rgb(87.843138%,87.843138%,87.843138%);fill-opacity:1;" d="M 5.292969 2.769531 L 5.292969 4.09375 L 6.613281 4.09375 L 6.613281 2.769531 Z M 6.613281 4.09375 L 6.613281 5.417969 L 7.9375 5.417969 L 7.9375 4.09375 Z M 6.613281 5.417969 L 5.292969 5.417969 L 5.292969 6.738281 L 6.613281 6.738281 Z M 6.613281 6.738281 L 6.613281 8.0625 L 7.9375 8.0625 L 7.9375 6.738281 Z M 5.292969 5.417969 L 5.292969 4.09375 L 3.96875 4.09375 L 3.96875 5.417969 Z M 3.96875 6.742188 L 3.96875 8.0625 L 5.292969 8.0625 L 5.292969 6.742188 Z M 3.96875 6.742188 "/>
<path style=" stroke:none;fill-rule:nonzero;fill:rgb(87.843138%,87.843138%,87.843138%);fill-opacity:1;" d="M 12.957031 9.191406 C 12.699219 8.933594 12.28125 8.933594 12.019531 9.191406 L 9.511719 11.699219 C 9.488281 11.714844 9.460938 11.734375 9.441406 11.757812 L 10.859375 13.175781 C 10.882812 13.15625 10.902344 13.128906 10.914062 13.105469 L 13.425781 10.597656 C 13.683594 10.335938 13.683594 9.917969 13.425781 9.660156 Z M 8.972656 12.222656 L 8.738281 12.457031 C 8.707031 12.488281 8.683594 12.527344 8.664062 12.566406 L 7.964844 14.203125 C 7.839844 14.488281 8.128906 14.773438 8.414062 14.652344 L 10.050781 13.953125 C 10.089844 13.933594 10.128906 13.910156 10.160156 13.878906 L 10.390625 13.644531 Z M 8.972656 12.222656 "/>
<path style=" stroke:none;fill-rule:nonzero;fill:rgb(87.843138%,87.843138%,87.843138%);fill-opacity:1;" d="M 5.292969 8.0625 L 5.292969 9.386719 L 6.613281 9.386719 L 6.613281 8.0625 Z M 6.613281 9.386719 L 6.613281 10.710938 L 7.9375 10.710938 L 7.9375 9.386719 Z M 6.613281 10.710938 L 5.292969 10.710938 L 5.292969 12.03125 L 6.613281 12.03125 Z M 6.613281 12.03125 L 7.9375 12.03125 Z M 5.292969 10.710938 L 5.292969 9.386719 L 3.96875 9.386719 L 3.96875 10.710938 Z M 3.96875 12.03125 L 3.96875 13.355469 L 5.292969 13.355469 L 5.292969 12.03125 Z M 3.96875 12.03125 "/>
<path style=" stroke:none;fill-rule:nonzero;fill:rgb(87.843138%,87.843138%,87.843138%);fill-opacity:1;" d="M 3.96875 1.449219 C 3.234375 1.449219 2.644531 2.039062 2.644531 2.769531 L 2.644531 13.355469 C 2.644531 14.089844 3.234375 14.679688 3.96875 14.679688 L 6.613281 14.679688 L 6.613281 13.355469 L 4.628906 13.355469 C 4.265625 13.355469 3.96875 13.058594 3.96875 12.695312 L 3.96875 3.433594 C 3.96875 3.066406 4.265625 2.769531 4.628906 2.769531 L 9.648438 2.769531 L 11.910156 5.027344 L 11.910156 7.402344 L 11.90625 7.402344 L 11.90625 7.730469 L 13.230469 7.730469 L 13.230469 7.402344 L 13.226562 7.402344 L 13.226562 4.753906 C 13.226562 4.582031 13.15625 4.414062 13.035156 4.289062 L 10.386719 1.644531 C 10.265625 1.519531 10.097656 1.453125 9.921875 1.453125 L 7.277344 1.453125 L 7.277344 1.449219 Z M 3.96875 1.449219 "/>
</g>
</svg>
